icons/eye_fill.svg

<svg width="48" height="48" viewBox="0 0 48 48" fill="none" xmlns="http://www.w3.org/2000/svg">
<path fill-rule="evenodd" clip-rule="evenodd" d="M6.69497 22.1883C8.57391 20.0613 11.4255 17.6246 15.086 15.9661C13.1678 18.0932 12 20.9102 12 24C12 27.0898 13.1678 29.9068 15.086 32.0339C11.4255 30.3754 8.57391 27.9387 6.69497 25.8117C5.76834 24.7628 5.76834 23.2372 6.69497 22.1883ZM5.19605 20.8642C8.60396 17.0063 15.0813 12.0927 23.8218 12.0013C23.8811 12.0004 23.9405 12 24 12L24.0291 12L24.0697 12C32.9356 12 39.5032 16.97 42.9433 20.8642C44.538 22.6695 44.538 25.3305 42.9433 27.1358C39.5032 31.03 32.9356 36 24.0697 36L24.0291 36L24 36C23.9405 36 23.8811 35.9996 23.8218 35.9987C15.0813 35.9073 8.60396 30.9937 5.19606 27.1358C3.60132 25.3305 3.60131 22.6695 5.19605 20.8642ZM24.0284 14C23.9677 14.0002 23.9071 14.0005 23.8466 14.0012C18.3945 14.0831 14 18.5284 14 24C14 29.4716 18.3945 33.9169 23.8466 33.9988C23.9071 33.9995 23.9677 33.9998 24.0284 34C29.5382 33.9847 34 29.5134 34 24C34 18.4866 29.5382 14.0153 24.0284 14ZM36 24C36 27.1409 34.7933 29.9999 32.8182 32.1388C36.5918 30.4794 39.5254 27.984 41.4443 25.8117C42.371 24.7628 42.371 23.2372 41.4443 22.1883C39.5254 20.016 36.5918 17.5206 32.8182 15.8612C34.7933 18.0001 36 20.8591 36 24ZM24.0696 30C27.3833 30 30.0696 27.3137 30.0696 24C30.0696 23.0737 29.8597 22.1965 29.4849 21.4132C29.1229 21.7757 28.6225 22 28.0697 22C26.9651 22 26.0697 21.1046 26.0697 20C26.0697 19.4472 26.294 18.9468 26.6565 18.5848C25.8732 18.2099 24.9959 18 24.0696 18C20.7559 18 18.0696 20.6863 18.0696 24C18.0696 27.3137 20.7559 30 24.0696 30Z" fill="black"/>
</svg>

<svg
  xmlns="http://www.w3.org/2000/svg"
  width="24"
  height="24"
  viewBox="0 0 24 24"
  fill="none"
  stroke="currentColor"
  stroke-width="2"
  stroke-linecap="round"
  stroke-linejoin="round"
>
  <path
    fill-rule="evenodd"
    d="M6.695 22.188c1.879-2.127 4.73-4.563 8.391-6.222A11.96 11.96 0 0 0 12 24c0 3.09 1.168 5.907 3.086 8.034-3.66-1.659-6.512-4.095-8.391-6.222a2.71 2.71 0 0 1 0-3.624m-1.499-1.324c3.408-3.858 9.885-8.771 18.626-8.863L24 12h.07c8.866 0 15.433 4.97 18.873 8.864a4.71 4.71 0 0 1 0 6.272C39.503 31.03 32.936 36 24.07 36H24l-.178-.001c-8.74-.092-15.218-5.005-18.626-8.863a4.71 4.71 0 0 1 0-6.272M24.028 14l-.181.001C18.394 14.083 14 18.528 14 24s4.395 9.917 9.847 9.999l.181.001C29.538 33.985 34 29.513 34 24s-4.462-9.985-9.972-10M36 24c0 3.14-1.207 6-3.182 8.139 3.774-1.66 6.707-4.155 8.626-6.327a2.71 2.71 0 0 0 0-3.624c-1.919-2.172-4.852-4.667-8.626-6.327A11.96 11.96 0 0 1 36 24m-11.93 6a6 6 0 0 0 5.415-8.587 2 2 0 1 1-2.828-2.828A6 6 0 1 0 24.07 30"
    clip-rule="evenodd"
  />
</svg>
